src/Eleven-Dark/16/symbolic/actions/action-unavailable-symbolic.svg

<?xml version="1.0" encoding="UTF-8" standalone="no"?>
<svg
   height="16"
   width="16"
   version="1.1"
   id="svg1"
   sodipodi:docname="action-unavailable-symbolic.svg"
   inkscape:version="1.4.2 (ebf0e940d0, 2025-05-08)"
   xmlns:inkscape="http://www.inkscape.org/namespaces/inkscape"
   xmlns:sodipodi="http://sodipodi.sourceforge.net/DTD/sodipodi-0.dtd"
   xmlns="http://www.w3.org/2000/svg"
   xmlns:svg="http://www.w3.org/2000/svg">
  <defs
     id="defs1">
     <style
        id="current-color-scheme"
        type="text/css">
        .ColorScheme-Text { color:#dedede; } .ColorScheme-Highlight { color:#4285f4; } .ColorScheme-NeutralText { color:#ff9800; } .ColorScheme-PositiveText { color:#4caf50; } .ColorScheme-NegativeText { color:#f44336; }
     </style>
  </defs>
  <sodipodi:namedview
     id="namedview1"
     pagecolor="#ffffff"
     bordercolor="#000000"
     borderopacity="0.25"
     inkscape:showpageshadow="2"
     inkscape:pageopacity="0.0"
     inkscape:pagecheckerboard="0"
     inkscape:deskcolor="#d1d1d1"
     inkscape:zoom="49.8125"
     inkscape:cx="8"
     inkscape:cy="8"
     inkscape:window-width="1920"
     inkscape:window-height="1012"
     inkscape:window-x="0"
     inkscape:window-y="0"
     inkscape:window-maximized="1"
     inkscape:current-layer="svg1" />
  <path
     id="path1"
     style="fill:currentColor;fill-opacity:1"
     class="ColorScheme-Text"
     d="M 8 0 C 3.588 0 0 3.588 0 8 C 0 12.412 3.588 16 8 16 C 12.412 16 16 12.412 16 8 C 16 3.588 12.412 0 8 0 z M 8 1 C 11.872 1 15 4.128 15 8 A 6.968 6.968 0 0 1 13.289062 12.582031 L 3.4179688 2.7109375 A 6.968 6.968 0 0 1 8 1 z M 2.7109375 3.4179688 L 12.582031 13.289062 A 6.968 6.968 0 0 1 8 15 C 4.128 15 1 11.872 1 8 C 1 6.244 1.6469375 4.6449688 2.7109375 3.4179688 z " />
</svg>

<svg height="16" width="16" xmlns="http://www.w3.org/2000/svg"><path d="M8 0C3.588 0 0 3.588 0 8s3.588 8 8 8 8-3.588 8-8-3.588-8-8-8zm0 1c3.872 0 7 3.128 7 7a6.968 6.968 0 0 1-1.71 4.582L3.417 2.711A6.968 6.968 0 0 1 8 1zM2.711 3.418l9.871 9.871A6.968 6.968 0 0 1 8 15c-3.872 0-7-3.128-7-7 0-1.756.647-3.355 1.711-4.582z" style="line-height:normal;font-variant-ligatures:normal;font-variant-position:normal;font-variant-caps:normal;font-variant-numeric:normal;font-variant-alternates:normal;font-feature-settings:normal;text-indent:0;text-align:start;text-decoration-line:none;text-decoration-style:solid;text-decoration-color:#dedede;text-transform:none;text-orientation:mixed;shape-padding:0;isolation:auto;mix-blend-mode:normal" color="#dedede" font-weight="400" font-family="sans-serif" overflow="visible" fill="#dedede"/></svg>
